X:97301
T:The Jubilee Jig
P:Miss Gordon of Liverpool
C:Marshall, Wm.
R:Jig (8x32)
B:RSCDS D73-1
Z:Anselm Lingnau <anselm@strathspey.org>
M:6/8
L:1/8
K:F
C|"F"F3 F2 A|dcA F3|"C"EFG "G"GAF|"C7"EDE CDE|\
  "F"F3 F2 d|"Am"cde "Dm"f2 c|
                              "Gm"d/e/fd "C7"e/f/ge|"F"f3 F2:|\
g|"F"afc "C7"bge|"F"a2 f c2 c|"Bb"def "G"gaf|"C7"e3 c3|
  "F"afc "C7"bge|"F"afc AFC|"Gm"D2 F "C7"E/F/GE|"F"F3 F2 g|\
  "F"afc "C7"bge|"F"a2 f c2 c|
                              "Bb"def "G"gaf|"C"e3 "C7"c2 c|\
  "Bb"dBf "F"cAf|"F"cAF C3|"Gm"D2 F "C7"E/F/GE|"F"F3 F2|]
